X:9490
T:Lennon's, Charlie
M:C
L:1/8
K:B Dorian
A|FBB2 fBB2|dcBc AEE2|FBB2 ABce|afec Baga|!
f2ec f2ec|BABc BAFE|FBB2 ABce|afec B3:|!
A|FBdc BFF2|EAcB AEE2|FBdc Bdfb|afec Bcdc|!
Bcde fBB2|afec ABce|f2a bfaf|afec B3:|!


